X: 12627
T: Farewell, Sweet Nora
R: jig
M: 6/8
K: Gmajor
DED GAB|AGA BGE|DED GAB|AdB AGE|
DED GAB|AGA Bcd|ege dBG|DEF G2z:|
|:dBd efg|fed cBA|GFG Bcd|efg a2 e/f/|
gbg {b}afd|d>gf/e/ dBG|ege dBG|DEF G2 z:|

